X:16828
T:The Helpers
C:Kinnon Beaton
R:Cape Breton reel
S:Tune of the Month, Dec. 2001, Sivler Apple News 8
Q:333
L:1/8
M:C|
K:E
c|B2 Bg fefg|a2 ge fccf|efec eBBg|bgeg f/f/f fg|!
B2 Bg fefg|afge fccf|ecBG Bebg|fefg e/e/e e:|!
|:g|bB B/B/B GBeg|ac c/c/c dBBd|efec eBBg|bgeg f/f/f fg|bB B/B/B GBeg|
[1ac c/c/c dBBd|efec Bebg|fefg e/e/e e:|[2a2 ge fccf|ecBG Bebg|fefg e/e/e e|]!
